packages/gestalt-icons-android/vr-theme/ic_vr_service-messenger_gestalt.svg

<svg width="24" height="24" viewBox="0 0 24 24" fill="none" xmlns="http://www.w3.org/2000/svg">
<path fill-rule="evenodd" clip-rule="evenodd" d="M0 11.6397C0 4.95286 5.24085 0 11.9997 0C18.7585 0 23.9993 4.95586 23.9993 11.6427C23.9993 18.3295 18.7585 23.2823 11.9997 23.2823C10.7847 23.2823 9.62073 23.1204 8.52576 22.8204C8.31277 22.7634 8.08477 22.7784 7.88378 22.8684L5.50185 23.9183C5.35799 23.9818 5.20074 24.0089 5.04394 23.9974C4.88713 23.9859 4.73555 23.936 4.60254 23.8521C4.46952 23.7683 4.35914 23.6531 4.28108 23.5166C4.20302 23.3801 4.15969 23.2265 4.15488 23.0694L4.08889 20.9334C4.08289 20.6694 3.96289 20.4234 3.76789 20.2494C1.43396 18.1615 0 15.1376 0 11.6397ZM8.3189 9.45283L4.794 15.0447C4.45501 15.5817 5.11499 16.1846 5.61898 15.8007L9.40487 12.9267C9.52944 12.8321 9.68143 12.7806 9.83786 12.7801C9.99428 12.7796 10.1466 12.83 10.2718 12.9237L13.0768 15.0267C13.2757 15.1761 13.5035 15.2826 13.7457 15.3396C13.9879 15.3965 14.2393 15.4026 14.484 15.3575C14.7286 15.3124 14.9613 15.2171 15.1673 15.0775C15.3733 14.938 15.5481 14.7572 15.6807 14.5467L19.2086 8.95784C19.5446 8.42086 18.8846 7.81487 18.3806 8.19886L14.5947 11.0728C14.4702 11.1674 14.3182 11.2189 14.1617 11.2194C14.0053 11.22 13.853 11.1695 13.7277 11.0758L10.9228 8.97284C10.7239 8.82343 10.4961 8.71688 10.2539 8.65994C10.0117 8.60299 9.76032 8.59687 9.51564 8.64198C9.27095 8.68708 9.03827 8.78242 8.83229 8.92198C8.62631 9.06155 8.4515 9.2423 8.3189 9.45283Z" fill="black"/>
</svg>

<svg xmlns="http://www.w3.org/2000/svg" width="24" height="24"><path d="M0 11.64C0 4.95 5.24 0 12 0s12 4.96 12 11.64-5.24 11.64-12 11.64q-1.83 0-3.47-.46a1 1 0 0 0-.65.05L5.5 23.92a.96.96 0 0 1-1.35-.85l-.06-2.14a1 1 0 0 0-.32-.68A11.4 11.4 0 0 1 0 11.64m8.32-2.19-3.53 5.6c-.33.53.32 1.13.83.75l3.78-2.87a.7.7 0 0 1 .87 0l2.8 2.1a1.8 1.8 0 0 0 2.61-.48l3.53-5.6c.33-.53-.33-1.14-.83-.75l-3.79 2.87a.7.7 0 0 1-.86 0l-2.8-2.1a1.8 1.8 0 0 0-2.61.48"/></svg>
